assets/svg/app/menu-hamburger-white.svg

<svg viewBox="0 0 18 12" fill="none" xmlns="http://www.w3.org/2000/svg">
    <path fill-rule="evenodd" clip-rule="evenodd" d="M0 2V0h18v2H0zm0 5h18V5H0v2zm0 5h18v-2H0v2z" fill="#fff"/>
</svg>

<svg width="18" height="12" viewBox="0 0 18 12" fill="none" xmlns="http://www.w3.org/2000/svg">
<path fill-rule="evenodd" clip-rule="evenodd" d="M0 2V0H18V2H0ZM0 7H18V5H0V7ZM0 12H18V10H0V12Z" fill="white"/>
</svg>
